X:1
T:Title
%%score ( 1 2 3 ) ( 4 5 )
L:1/8
Q:1/4=105
M:4/4
K:F
V:1 treble nm="Grand Piano, Soprano"
V:2 treble 
V:3 treble 
V:4 bass nm="Choir Pad, Message of Christmas Time"
V:5 bass 
V:1
 [FA]2 [F_A]2 [F=A]3 C | [FA]>[F_A] [F=A]>[F_A] [F=A]4 | F2 [FA]2 [Fd]2 [Fc]2 | [Be]2 z2 z4 | %4
w: By~Joseph~Lincoln~Hall * * *||||
 [GB]2 [^FA]2 [GB]3 [FA] | [GB]>[FB] [GB]>[FB] [GB]4 | [Be]2 [Bd]2 [Gc]2 [GB]2 | [FA]6 z2 | %8
w: ||||
 [FA]2 [F_A]2 [F=A]3 C | [FA]>[F_A] [F=A]>[F_A] [F=A]4 | [^FA][FA][F_A][F=A] [FB]2 [FA]2 | %11
w: |||
 [Gd]6 z2 | [Ec]6 [Gd][Ge] | [Ff]4 F3 [FG] | [FA] [Fd]2 [Fc] [DB]2 [CE]2 | F6 z2 | %16
w: |||||
 [A,C]2 [A,D]2 [A,E]2 [A,CF]2 | [CFA]>_A [CF=A]>_A =A2- [CFA]2 | [A,C]2 [A,D]2 [A,F]2 [A,D]2 | %19
w: |||
 E6 z2 | [B,C]2 [B,D]2 [B,E]2 [B,G]2 | [EGB]>A [EGB]>A B2- [EGB]2 | %22
w: |||
 [EGBe]2 [EGBd]2 [EGBc]2 [EGB]2 | A6 z2 | [A,C]2 [A,D]2 [A,E]2 [A,CF]2 | z4 =A4 | .A2 ._A2 z4 | %27
w: |||||
 d6 z2 | c6 z2 | f4 z4 | A .d3 z4 | F6 z2 | z8 |] %33
w: ||||||
V:2
 x8 | x8 | x8 | [EG]2- [E-G-e]>[EGBe] [EGBe]2 z2 | x8 | x8 | x8 | x8 | x8 | x8 | x8 | x8 | x8 | %13
 x8 | x8 | C2 D2 C2 z2 | x8 | z4 [CF]2 z2 | x8 | [B,C]2 [B,C]2 [B,C]2 [B,C]2 | x8 | z4 [EG]2 z2 | %22
 x8 | [CF]2 [CF]2 [CF]2 [CF]2 | x8 | [CFA]>_A [CF=A]>_A [CF]2 [CF]2 | ^F-[FA]F-[F=A] [FB]2 [FA]2 | %27
 [DG]2 [DG]2 [DG]2 [DG]2 | [EGB]2 [EGB]2 [EGB]2 de | [FA]2 [FA]2 F3 G | z2 [FA]2 z4 | C2 D2 C4- | %32
 C4 z4 |] %33
V:3
 x8 | x8 | x8 | x8 | x8 | x8 | x8 | x8 | x8 | x8 | x8 | x8 | x8 | x8 | x8 | x8 | x8 | x8 | x8 | %19
 x8 | x8 | x8 | x8 | x8 | x8 | x8 | x8 | x8 | x8 | x8 | [EG]2 z c [EGB]2 [CE]2 | x8 | x8 |] %33
V:4
 [F,C]2 [F,=B,]2 [F,C]3 [F,A,] | [F,C]>[F,=B,] [F,C]>[F,B,] [F,C]4 | %2
 [F,A,]2 [F,C]2 [F,B,]2 [F,A,]2 | [C,C]2 [C,C]>[C,C] [C,C]2 z2 | [C,C]2 [C,C]2 [C,C]3 [C,C] | %5
 [C,C]>[C,C] [C,C]>[C,C] [C,C]4 | [C,C]2 [C,C]2 [D,C]2 [E,C]2 | C2 D2 C2 A,2 | %8
 [F,C]2 [F,=B,]2 [F,C]3 [F,A,] | [F,C]>[F,=B,] [F,C]>[F,B,] [F,C]4 | %10
 [D,C][D,C][D,C][D,C] [D,C]2 [D,C]2 | [G,B,]2 [G,B,]2 [G,B,]2 z2 | %12
 [B,C]2 [B,C]2 [B,C]2 [B,C][B,C] | A,2 z2 z4 | [C,C] [C,A,]2 [C,A,] [C,G,]2 [C,B,]2 | A,2 z2 z4 | %16
 [F,,F,]2 [C,,C,]2 [F,,F,]2 [C,,C,]2 | [F,,F,]2 [C,,C,]2 [F,,F,]2 [C,,C,]2 | %18
 [F,,F,]2 [C,,C,]2 [F,,F,]2 [C,,C,]2 | [G,,G,]2 [C,,C,]2 [G,,G,]2 [C,,C,]2 | %20
 [G,,G,]2 [C,,C,]2 [G,,G,]2 [C,,C,]2 | [G,,G,]2 [C,,C,]2 [G,,G,]2 [C,,C,]2 | %22
 [G,,G,]2 [C,,C,]2 [G,,G,]2 [C,,C,]2 | [F,,F,]2 [E,,E,]2 [D,,D,]2 [C,,C,]2 | %24
 [F,,F,]2 [C,,C,]2 [F,,F,]2 [C,,C,]2 | [F,,F,]2 [C,,C,]2 [F,,F,]2 [C,,C,]2 | %26
 [D,C]2 [D,C]2 [D,A,C]2 [D,A,C]2 | [G,B,]2 [G,B,]2 [G,B,]2 [G,B,]2 | %28
 [G,B,C]2 [G,B,C]2 [G,B,C]2 z2 | [F,A,C]2 [F,A,C]2 .[^C,F,_A,=B,]4 | %30
 [C,F,A,C]2 [C,F,A,C]2 [C,G,C]2 [C,G,B,]2 | [F,A,]2 [F,B,]2 [F,A,]4- | [F,A,]4 z4 |] %33
V:5
 x8 | x8 | x8 | x8 | x8 | x8 | x8 | F,6 z2 | x8 | x8 | x8 | x8 | x8 | C2- [F,C]2 [^C,B,]3 [C,B,] | %14
 x8 | F,2- [F,-B,]2 [F,A,]2 z2 | x8 | x8 | x8 | x8 | x8 | x8 | x8 | x8 | x8 | x8 | x8 | x8 | x8 | %29
 x8 | x8 | x8 | x8 |] %33

